icons/doctor_male.svg

<svg width="48" height="48" viewBox="0 0 48 48" fill="none" xmlns="http://www.w3.org/2000/svg">
<path fill-rule="evenodd" clip-rule="evenodd" d="M16.649 9.32576C16.6638 9.26051 16.6816 9.18217 16.7042 9.08596C16.809 8.63989 16.9815 7.98431 17.3364 7.33819C17.698 6.68004 18.2591 6.01298 19.1388 5.5742C20.0155 5.13692 21.115 4.97307 22.4739 5.15425C23.9737 5.35421 26.9871 5.85032 29.6486 7.20423C32.3262 8.56634 34.8337 10.9086 34.8336 14.8107C34.8336 16.8266 34.0531 18.9896 33.2985 20.3998C32.9353 21.0784 32.5036 21.726 32.0722 22.0754C31.9733 22.1555 31.8329 22.2548 31.6567 22.3257C30.6604 25.6096 27.6093 27.9999 24 27.9999C20.6668 27.9999 17.8097 25.9614 16.6074 23.0631L16.5829 23.0665L16.2281 22.6357C16.2284 22.6361 16.2281 22.6357 17 21.9999L16.2281 22.6357L16.2268 22.6341L16.2249 22.6318L16.2196 22.6253L16.2029 22.6046C16.1893 22.5875 16.1705 22.5638 16.1471 22.5336C16.1003 22.4733 16.0352 22.3874 15.956 22.2779C15.7979 22.0593 15.5828 21.7455 15.3465 21.3541C14.8766 20.5758 14.3087 19.4678 13.9466 18.1751C13.5843 16.8818 13.4178 15.366 13.7981 13.8024C14.1684 12.2799 15.0408 10.7813 16.622 9.4441C16.6301 9.40931 16.6389 9.3704 16.649 9.32576ZM18.3287 21.9636C19.142 24.3129 21.374 25.9999 24 25.9999C26.927 25.9999 29.3645 23.904 29.8935 21.1311L30.0056 21.1685C30.0015 21.1095 30 21.053 30 20.9999C30 19.3438 29.7703 18.1883 29.5558 17.4693C29.5082 17.3096 29.4612 17.1711 29.4174 17.053L29.3757 17.0545L29.3358 17.0558C28.8039 17.0712 28.0489 17.044 27.1042 16.8845C25.3874 16.5946 23.0619 15.8706 20.3244 14.1938C20.2645 14.328 20.2044 14.4787 20.1449 14.6468C19.9483 15.2022 19.7872 15.861 19.6478 16.5564C19.5248 17.1696 19.4235 17.7861 19.3283 18.3653L19.2908 18.5929C19.1884 19.2135 19.0852 19.8215 18.9648 20.263C18.7557 21.0295 18.5412 21.5734 18.3287 21.9636ZM16.9294 20.1013C16.5517 19.4454 16.1403 18.5915 15.8725 17.6356C15.574 16.5701 15.4641 15.4154 15.7415 14.275C16.0114 13.1651 16.6648 11.9976 18.0083 10.8921C18.2499 10.7283 18.3602 10.508 18.3899 10.4487L18.3904 10.4476C18.4539 10.3208 18.4927 10.1927 18.5157 10.1109C18.5478 9.99654 18.5829 9.84181 18.6151 9.70033C18.6277 9.64495 18.6398 9.59161 18.6511 9.54351C18.7458 9.14088 18.8693 8.7017 19.0893 8.30119C19.3028 7.91271 19.5957 7.58129 20.0315 7.36392C20.4702 7.14506 21.1477 6.99513 22.2096 7.13671C23.663 7.33048 26.3957 7.79338 28.7418 8.98684C31.0718 10.1721 32.8337 11.9656 32.8336 14.8107C32.8336 16.1212 32.3931 17.6103 31.8637 18.7863C31.7638 18.0202 31.6203 17.3937 31.4723 16.8976C31.3368 16.4431 31.198 16.1 31.0868 15.8608C31.0313 15.7413 30.9827 15.6479 30.945 15.5797C30.9262 15.5456 30.9101 15.5179 30.8972 15.4963L30.8803 15.4686L30.8738 15.4583L30.8711 15.4539L30.8692 15.4511C30.869 15.4506 30.8687 15.4502 30.0281 15.9919L30.8687 15.4502L30.4991 14.8768L29.8369 15.0103L29.823 15.0127C29.8055 15.0155 29.7731 15.0203 29.7264 15.0258C29.633 15.0369 29.4822 15.0507 29.2778 15.0566C28.8692 15.0685 28.2455 15.0489 27.4372 14.9124C25.8246 14.6401 23.4549 13.8986 20.5761 11.9813L19.8764 11.5153L19.2971 12.1246C18.8198 12.6266 18.4957 13.3122 18.2595 13.9795C18.0172 14.6642 17.8342 15.4282 17.6868 16.1632C17.5565 16.8133 17.4492 17.4661 17.3545 18.0421L17.3175 18.2671C17.2101 18.918 17.123 19.4149 17.0352 19.7368C16.9991 19.8694 16.9637 19.9906 16.9294 20.1013ZM30.8103 20.5235L30.8141 20.5207L30.8103 20.5235ZM30.8141 20.5207L30.8133 20.5213L30.8141 20.5207ZM30.8133 20.5213L30.8103 20.5235L30.8133 20.5213Z" fill="black"/>
<path fill-rule="evenodd" clip-rule="evenodd" d="M17.9141 28.855C17.7025 28.433 17.4413 27.9121 17 28.0126C11.5958 29.2433 6 32.7945 6 36.5698V41.9999H42V36.5698C42 33.5961 38.5281 30.7614 34.4127 29.0902C34.4112 29.0871 34.4097 29.084 34.4082 29.0808C34.4037 29.0714 34.3991 29.062 34.3944 29.0527L34.3611 29.0694C33.2676 28.6285 32.1296 28.2698 31 28.0126C30.4972 27.8981 29.9775 28.5901 29.7493 29.0237H25.6851C24.7983 29.0238 24.3458 29.0237 23.9022 29.0237H23.8769C23.4237 29.0236 22.9705 29.0235 22.0639 29.0237H18C17.9721 28.9707 17.9436 28.9138 17.9141 28.855ZM31.4029 30.1759C31.8398 30.2964 32.2749 30.4324 32.7043 30.5825C32.7161 30.9245 32.6903 31.3283 32.6342 31.7398C32.5775 32.1556 32.4932 32.5545 32.3994 32.8762C32.3867 32.9196 32.3741 32.9609 32.3616 32.9999H31C30.6212 32.9999 30.275 33.2139 30.1056 33.5527L29.1056 35.5527C29.0361 35.6916 29 35.8447 29 35.9999V37.9999C29 38.5522 29.4477 38.9999 30 38.9999H32V36.9999H31V36.236L31.618 34.9999H34.382L35 36.236V36.9999H34V38.9999H36C36.5523 38.9999 37 38.5522 37 37.9999V35.9999C37 35.8447 36.9639 35.6916 36.8944 35.5527L35.8944 33.5527C35.725 33.2139 35.3788 32.9999 35 32.9999H34.4336C34.5076 32.685 34.5697 32.3484 34.6158 32.01C34.6435 31.807 34.666 31.5993 34.6818 31.3914C35.6567 31.8524 36.5634 32.3804 37.3477 32.9527C39.2703 34.3554 40 35.6669 40 36.5698V39.9999H8V36.5698C8 35.6669 8.72972 34.3554 10.6523 32.9527C11.6185 32.2477 12.7705 31.6097 14.0071 31.0818C14.02 31.3915 14.0498 31.7061 14.0913 32.01C14.1596 32.5109 14.2628 33.0078 14.3877 33.4362L14.396 33.4643C13.557 33.9962 13 34.933 13 35.9999C13 37.6568 14.3431 38.9999 16 38.9999C17.6569 38.9999 19 37.6568 19 35.9999C19 34.4622 17.8431 33.1947 16.3521 33.0204C16.3375 32.9754 16.3226 32.9273 16.3077 32.8762C16.2139 32.5545 16.1296 32.1556 16.0729 31.7398C16.0161 31.3228 15.9903 30.9136 16.0033 30.5687C16.0064 30.4852 16.0116 30.4108 16.0182 30.345C16.1382 30.308 16.2584 30.2721 16.3788 30.2375L16.7927 31.0237H22.0644C22.9912 31.0235 23.4375 31.0236 23.8896 31.0237C24.3313 31.0237 24.7785 31.0238 25.6851 31.0237H30.9566L31.4029 30.1759ZM16 37.0146C16.5384 37.0146 17 36.5742 17 35.9999C17 35.4257 16.5384 34.9852 16 34.9852C15.4616 34.9852 15 35.4257 15 35.9999C15 36.5742 15.4616 37.0146 16 37.0146Z" fill="black"/>
</svg>

<svg
  xmlns="http://www.w3.org/2000/svg"
  width="24"
  height="24"
  viewBox="0 0 24 24"
  fill="none"
  stroke="currentColor"
  stroke-width="2"
  stroke-linecap="round"
  stroke-linejoin="round"
>
  <path
    fill-rule="evenodd"
    d="m16.649 9.326.055-.24c.105-.446.277-1.102.632-1.748.362-.658.923-1.325 1.803-1.764.877-.437 1.976-.6 3.335-.42 1.5.2 4.513.696 7.175 2.05 2.677 1.362 5.185 3.705 5.185 7.607 0 2.016-.78 4.179-1.536 5.589-.363.678-.794 1.326-1.226 1.675-.099.08-.24.18-.415.25a8.004 8.004 0 0 1-15.05.738l-.024.004-.355-.431L17 22l-.772.636-.001-.002-.002-.002-.005-.007-.017-.02a7 7 0 0 1-.247-.327 14 14 0 0 1-.61-.924c-.47-.778-1.037-1.886-1.4-3.179-.362-1.293-.528-2.809-.148-4.373.37-1.522 1.243-3.02 2.824-4.358zm1.68 12.638a6.003 6.003 0 0 0 11.564-.833l.113.038a2 2 0 0 1-.006-.17c0-1.655-.23-2.81-.444-3.53a7 7 0 0 0-.139-.416l-.041.002h-.04a11.5 11.5 0 0 1-2.232-.17c-1.717-.29-4.042-1.014-6.78-2.691q-.09.201-.18.453c-.196.555-.357 1.214-.496 1.91-.123.613-.224 1.23-.32 1.808l-.037.228c-.103.62-.206 1.229-.326 1.67-.21.766-.424 1.31-.636 1.7m-1.4-1.863c-.377-.656-.789-1.51-1.056-2.465-.299-1.066-.409-2.22-.131-3.361.27-1.11.923-2.277 2.266-3.383.242-.164.352-.384.382-.443v-.001a2 2 0 0 0 .126-.337c.032-.114.067-.27.1-.41l.035-.157c.095-.403.218-.842.438-1.243.214-.388.507-.72.943-.937.438-.219 1.116-.369 2.178-.227 1.453.193 4.186.656 6.532 1.85 2.33 1.185 4.092 2.979 4.092 5.824 0 1.31-.44 2.8-.97 3.975-.1-.766-.244-1.392-.392-1.888a8 8 0 0 0-.385-1.037 5 5 0 0 0-.19-.365l-.017-.027-.006-.01-.003-.005-.002-.003-.84.54.84-.54-.37-.574-.662.133-.014.003-.097.013a5 5 0 0 1-.448.03 9.5 9.5 0 0 1-1.84-.144c-1.613-.272-3.983-1.013-6.862-2.93l-.7-.467-.579.61c-.477.502-.801 1.187-1.038 1.854-.242.685-.425 1.45-.572 2.184-.13.65-.238 1.303-.332 1.88l-.038.224c-.107.651-.194 1.148-.282 1.47q-.054.199-.106.364m13.881.422.004-.002zm.004-.002-.004.002z"
    clip-rule="evenodd"
  />
  <path
    fill-rule="evenodd"
    d="M17.914 28.855c-.212-.422-.473-.943-.914-.842-5.404 1.23-11 4.781-11 8.557V42h36v-5.43c0-2.974-3.472-5.809-7.587-7.48l-.005-.01-.014-.027-.033.016c-1.093-.44-2.231-.8-3.361-1.056-.503-.115-1.023.577-1.25 1.01H18q-.041-.08-.086-.168m13.489 1.32q.656.182 1.301.407c.012.342-.014.746-.07 1.158a8 8 0 0 1-.272 1.26H31a1 1 0 0 0-.894.553l-1 2A1 1 0 0 0 29 36v2a1 1 0 0 0 1 1h2v-2h-1v-.764L31.618 35h2.764L35 36.236V37h-1v2h2a1 1 0 0 0 1-1v-2a1 1 0 0 0-.106-.447l-1-2A1 1 0 0 0 35 33h-.566a11 11 0 0 0 .248-1.609c.975.461 1.881.99 2.666 1.562C39.27 34.355 40 35.667 40 36.57V40H8v-3.43c0-.903.73-2.215 2.652-3.617.966-.705 2.119-1.343 3.355-1.871.013.31.043.624.084.928.069.5.172.998.297 1.426l.008.028a3 3 0 1 0 1.956-.444l-.044-.144a8 8 0 0 1-.235-1.136 7 7 0 0 1-.07-1.171q.005-.126.015-.224.18-.056.36-.107l.415.786h14.164zM16 37.016c.538 0 1-.44 1-1.015 0-.574-.462-1.015-1-1.015s-1 .44-1 1.015c0 .574.462 1.015 1 1.015"
    clip-rule="evenodd"
  />
</svg>
